!!!!SEGMENT: pl-wn--mus-iii-75-728-cim--003_sowinski-wojciech--skowronek.krn
!!!cenid: 18xx:3592
!!!COM: Sowiński, Wojciech
!!!COM-rismid: pe30008543
!!!CDT:
!!!CNT:
!!!OTL: Skowronek
!!!PDT:
!!!AGN: 1833
!!!SMS-siglum: PL-Wn
!!!SMS-shelfmark: Mus.III.75.728 Cim.
!!!SMS-shelfwork: 003 W
!!!SMS-variant:
!!!SMS-altvar:
!!!NIFC-rismid:
!!!URL-scan: https://polona.pl/item/album-lyrique-contenant-dix-romances-chansonnettes-et-mazureck-a-une-ou-plusieurs-voix,NzE0MjM5Nzc/9/#info:metadata
!!!ONB-nifc: UWAGA: kolejne zwrotki wpisane w źródle tylko dla głosu wokalnego przetranskrybować wraz ze skopiowaną partią fortepianu (do ukrycia w humdrumie)
!!!OMD: Quasi andante.
!!!key: D
**kern	**kern	**dynam	**kern	**text
*part2	*part2	*part2	*part1	*part1
*staff3	*staff2	*	*staff1	*staff1
*I"PIANO.	*I"PIANO.	*	*I"Voce	*
*Ipiano	*Ipiano	*	*	*
*ICklav	*ICklav	*	*	*
*clefF4	*clefG2	*	*clefG2	*
*k[f#c#]	*k[f#c#]	*	*k[f#c#]	*
*D:	*D:	*	*D:	*
*M3/4	*M3/4	*	*M3/4	*
*>[A,B,B,B,A]	*>[A,B,B,B,A]	*	*>[A,B,B,B,A]	*
=1	=1	=1	=1	=1
*>A	*>A	*	*>A	*
!	!LO:TX:a:t=Wyjątek z pobudki Seweryna GOSZCZYŃSKIEGO.	!LO:DY:b:rj	!	!
4F#\	8f#/L	p	2.ryy	.
.	8a/J	.	.	.
.	16qqcc#/	.	.	.
4r	4b/	.	.	.
4d\ 4f#	4a/	.	.	.
=2	=2	=2	=2	=2
.	16qqcc#/	.	.	.
2A\ 2c# 2e	(8b/L	.	2.ryy	.
.	8a/J)	.	.	.
.	4b\	.	.	.
4A\ 4e 4g	4cc#\	.	.	.
=3	=3	=3	=3	=3
.	16qqee/	.	.	.
!LO:N:vis=4	!	!	!	!
8D'\	(8dd\L	.	2.ryy	.
8r	8cc#\J	.	.	.
*clefG2	*	*	*	*
2d/ 2f# 2a	4dd\	.	.	.
.	4ff#\)	.	.	.
*clefF4	*	*	*	*
=4	=4	=4	=4	=4
4AA/	(2ee^^\	sf	2.ryy	.
(4A\	.	.	.	.
4c#\) 4e	4a\)	.	.	.
=5	=5	=5	=5	=5
!	!LO:TX:a:t=A Mademoiselle OLYMPE MALESZEWSKA	!	!	!
!	!LO:TX:b:t=dolce.	!	!	!
2G\ 2A 2c# 2e	(8.ff#\L	.	2.ryy	.
.	16ee\Jk)	.	.	.
.	4ff#\	.	.	.
4G\ 4A 4c# 4e	(4ee\	.	.	.
=6	=6	=6	=6	=6
2F#\ 2d 2f#	8.aa\L)	sf	2.ryy	.
.	(16aa\Jk	>	.	.
.	4dd\)	.	.	.
4B\ 4d 4f#	(4dd^^\	]]	.	.
=7	=7	=7	=7	=7
2G\ 2B 2e	8.gg\L)	.	2.ryy	.
.	(16gg\Jk	.	.	.
.	4cc#^^\)	.	.	.
4A\ 4e 4g	(4cc#\	.	.	.
!!LO:LB:g=original
=8	=8	=8	=8	=8
2d\ 2f#	2dd\)	.	2.r	.
!	!LO:TX:a:t=Fin.	!	!	!
4r	4r	.	.	.
=9||	=9||	=9||	=9||	=9||
*>B	*>B	*	*>B	*
2D\	2d/ 2f# 2a	p	4f#/	Co
.	.	.	4.b/	tu
4D\	4d/ 4f# 4a	.	.	.
.	.	.	8a/	za
=10	=10	=10	=10	=10
2AA\ 2A	2c#/ 2e 2g 2a	.	2b\	wios-
4AA\ 4A	4c#/ 4e 4g 4a	.	4cc#\	-na
=11	=11	=11	=11	=11
2D\	2d/ 2f# 2a	.	8dd\	że
.	.	.	8cc#\	ro-
.	.	.	4dd\	-la
4D\	4d/ 4f# 4a	.	4ff#\	tak
=12	=12	=12	=12	=12
2AA\ 2A	2c#/ 2e 2g 2a	.	2ee\	zry-
4AA\ 4A	4c#/ 4e 4g 4a	.	4a\	-ta
=13	=13	=13	=13	=13
*	*^	*	*	*
2D\	(8f#/L	2A\ 2d	.	4r	.
.	8a/J	.	.	.	.
.	4b/	.	.	4r	.
4D\	4f#/) 4a	4d\	.	4a\	a
*	*v	*v	*	*	*
=14	=14	=14	=14	=14
4AA\ 4A	4r	.	2b\	za-
4r	2c#/ 2e 2g 2a	.	.	.
4AA\ 4A	.	.	4cc#\	-miast
!!LO:LB:g=original
=15	=15	=15	=15	=15
2BB\ 2B	4r	<	4dd\	zbo-
.	2d/ 2f#	[[	4b\	-ża
4BB\ 4B	.	.	4dd\	zie-
=16	=16	=16	=16	=16
2.FF#\ 2.F#	4r	>	2cc#\	-le-
.	2A#X</ 2c#< 2f#	]	.	.
.	.	.	4f#/	-ni
=17	=17	=17	=17	=17
*	*^	*	*	*
2AAn\ 2An	8e/L	2c#\ 2e	<	4e/	Mło-
.	8a/J	.	.	.	.
.	4b/	.	.	4.b/	-da
4AA\ 4A	4a/	4ryy	[	.	.
.	.	.	.	8a/	mu-
=18	=18	=18	=18	=18	=18
2D\ 2A	8f#/L	2d\	<	2f#/	-ra-
.	8a/J	.	.	.	.
.	4b/	.	.	.	.
4D\ 4A	4a/	4ryy	[	4a\	-wa
*	*v	*v	*	*	*
=19	=19	=19	=19	=19
2AA\ 2A	2c#/ 2e 2g 2a	.	(8b\L	krwią
.	.	.	8cc#\J)	.
.	.	.	4dd\	się
4AA\ 4A	4c#/ 4e 4g 4a	.	4ee\	czer-
=20	=20	=20	=20	=20
2.BB\ 2.B	4r	.	2gg\	-wie-
.	2d/ 2f#	.	.	.
.	.	.	4ff#\	-ni
=21	=21	=21	=21	=21
2GG/ 2G	2B/ 2e 2g	fz	(8ee\L	Bło-
.	.	.	8dd\J)	.
.	.	.	4cc#\	-nie
4GG/ 4G	4B/ 4e 4g	.	4b\	bla-
!!LO:LB:g=original
=22	=22	=22	=22	=22
*	*^	*	*	*
2AA\ 2A	8b/L	2d\ 2f#	>	2b\	-de-
.	8a/J	.	.	.	.
.	4b/	.	.	.	.
4AA\ 4A	4f#/ 4a	4d\	]	4a/	-mi
*	*v	*v	*	*	*
=23	=23	=23	=23	=23
2AA\ 2A	2c#/ 2e 2g 2a	<	8cc#\	tru-
.	.	.	8b\	-pa-
.	.	.	4g/	-mi
4AA\ 4A	4e/ 4g 4a 4cc#	[[	4e/	za-
=24	=24	=24	=24	=24
2DD/ 2D	2d/ 2f# 2a 2dd	sf	2d/	-kwi-
4r	4r	.	4d/	-ta
=25	=25	=25	=25	=25
2B\ 2d	4r	.	4g/	slicz-
!	!	!LO:DY:b:rj	!	!
.	4g\ 4gg	p	4g/	-na
4B\ 4d	4r	.	4g/	to
=26	=26	=26	=26	=26
2A\ 2c#	4r	.	2f#/	wios-
.	4f#\ 4ff#	.	.	.
4A\ 4c#	4r	.	4f#/	-na
=27	=27	=27	=27	=27
2.C#\ 2.G#X 2.B	4r	.	8e#X/	o
.	.	.	8dd\	pta-
.	4ee#X\ 4eee#X	.	4cc#\	-szy-
.	4r	.	4e#/	-no
=28	=28	=28	=28	=28
2F#\ 2A	4r	.	2f#/	mi-
.	4ff#\ 4fff#	.	.	.
4F#\ 4A	4r	.	4f#/	-ła
!!LO:PB:g=original
=29	=29	=29	=29	=29
*	*^	*	*	*
2G\ 2A 2c# 2e	8.ff#/L	4a\ 4cc#	sf	8f#/L	gdzie
.	.	.	.	8en/J	.
.	16ee/Jk	.	.	.	.
.	4ff#/	4r	.	4f#/	lat
4G\ 4A 4c# 4e	4cc#/ 4ee	4a\	.	4e/	trzy-
=30	=30	=30	=30	=30	=30
2F#\ 2d 2f#	8.aa/L	2a\ 2dd	sf >	2a/	-dzieś-
.	16aa/Jk	.	.	.	.
.	4dd/	.	.	.	.
4B\ 4d 4f#	4dd/	4b\	]	4d/	-ci
=31	=31	=31	=31	=31	=31
4G\ 4B 4e	8.gg/L	4b\	sf >	8g/	zgo-
.	.	.	.	8g/	-ra
.	16gg/Jk	.	.	.	.
4A\ 4e	4cc#/	4ryy	.	4c#/	zi-
4A\ 4e	4a/ 4cc#	4g\	]	4c#/	-ma
*	*v	*v	*	*	*
=32	=32	=32	=32	=32
2D\ 2d	2f#\ 2a 2dd	.	2d/	by-
4D\ 4d	4f#\ 4a 4dd	.	4d/	-ła
=33||	=33||	=33||	=33||	=33||
4AA\ 4A	4r	.	8e/	Pta-
.	.	.	8a/	-szek
4r	4c#/ 4e 4g 4a	p	4b/	skrzy-
4r	4c#/ 4e 4g 4a	.	4a/	-dła-
=34	=34	=34	=34	=34
4AA\ 4A	4r	.	8f#/L	-mi
.	.	.	8a/J	trze-
4r	4d/ 4f# 4a	.	4b/	-pio-
4r	4d/ 4f# 4a	.	4a/	-tał
!!LO:LB:g=original
=35	=35	=35	=35	=35
4AA\ 4A	4r	.	8b\	po-
.	.	.	8cc#\	-czął
4r	4c#/ 4e 4g 4a	.	4dd\	krą-
4r	4c#/ 4e 4g 4a	.	4ee\	-żyć
=36	=36	=36	=36	=36
2BB\ 2B	4r	.	8gg\	i
.	.	.	8ff#\	szcze-
.	4d/ 4f#	sf >	4ee\	-bio-
4r	4d/ 4f#	]]	4dd\	-tał
=37	=37	=37	=37	=37
2GG\ 2G	4r	.	8ee\	Pta-
.	.	.	8dd\	-szek
.	4B/ 4e	.	4cc#\	skrzy-
4r	4B/ 4e	.	4b\	-dła-
=38	=38	=38	=38	=38
2AA\ 2A	4r	.	8cc#\	-mi
.	.	.	8b\	trze-
.	4d/ 4f#	.	4a/	-pio-
4r	4A</ 4d 4f#	.	4f#/	-tał
=39	=39	=39	=39	=39
2AA\ 2A	4r	.	8b/	i
.	.	.	8a/	po-
.	4e/ 4g 4a 4cc#	<	4g/	-czął
4AAA/ 4AA	4e/ 4g 4a 4cc#	[[	4e/	krą-
=40	=40	=40	=40	=40
2DD/ 2D	4r	.	4d/	-żyć
.	4d/ 4f# 4a 4dd	.	4r	.
4r	4r	.	4r	.
!!LO:LB:g=original
=41||	=41||	=41||	=41||	=41||
*>B	*>B	*	*>B	*
2D\yy	2d/yy 2f#yy 2ayy	py	4f#/	Ska
.	.	.	4.b/	się
4D\yy	4d/yy 4f#yy 4ayy	.	.	.
.	.	.	8a/	ta
=42	=42	=42	=42	=42
2AA\yy 2Ayy	2c#/yy 2eyy 2gyy 2ayy	.	2b\	dziw-
4AA\yy 4Ayy	4c#/yy 4eyy 4gyy 4ayy	.	4cc#\	-na
=43	=43	=43	=43	=43
2D\yy	2d/yy 2f#yy 2ayy	.	8dd\	wzię-
.	.	.	8cc#\	-ła
.	.	.	4dd\	gos-
4D\yy	4d/yy 4f#yy 4ayy	.	4ff#\	-po-
=44	=44	=44	=44	=44
2AAyy\ 2Ayy	2c#/yy 2eyy 2gyy 2ayy	.	2ee\	-dar-
4AA\yy 4Ayy	4c#/yy 4eyy 4gyy 4ayy	.	4a\	-ka
=45	=45	=45	=45	=45
*	*^	*	*	*
2D\yy	(8f#/Lyy	2A\yy 2dyy	.	4r	.
.	8a/Jyy	.	.	.	.
.	4b/yy	.	.	4r	.
4D\yy	4f#/)yy 4ayy	4d\yy	.	4a\	o-
*	*v	*v	*	*	*
=46	=46	=46	=46	=46
4AA\yy 4Ayy	4ryy	.	2b\	-rać
4ryy	2c#/yy 2eyy 2gyy 2ayy	.	.	.
4AA\yy 4Ayy	.	.	4cc#\	po-
=47	=47	=47	=47	=47
2BB\yy 2Byy	4ryy	<	4dd\	-le
.	2d/yy 2f#yy	[[	4b\	pło-
4BB\yy 4Byy	.	.	4dd\	-mie-
=48	=48	=48	=48	=48
2.FF#\yy 2.F#yy	4ryy	>	2cc#\	-nia-
.	2A#X</yy 2c#<yy 2f#yy	]	.	.
.	.	.	4f#/	-mi
!	!	!	!LO:LB:g=original	!
=49	=49	=49	=49	=49
*	*^	*	*	*
2AAn\yy 2Anyy	8e/Lyy	2c#\yy 2eyy	<	4e/	ciep-
.	8a/Jyy	.	.	.	.
.	4b/yy	.	.	4.b/	-łą
4AA\yy 4Ayy	4a/yy	4ryy	.	.	.
.	.	.	[	8a/	krwią
=50	=50	=50	=50	=50	=50
2D\yy 2Ayy	8f#/Lyy	2d\yy	<	2f#/	ro-
.	8a/Jyy	.	.	.	.
.	4b/yy	.	.	.	.
4D\yy 4Ayy	4a/yy	4ryy	[	4a/	-sić
*	*v	*v	*	*	*
=51	=51	=51	=51	=51
2AA\yy 2Ayy	2c#/yy 2eyy 2gyy 2ayy	.	8b\	na-
.	.	.	8cc#\	-wo-
.	.	.	4dd\	-zić
4AA\yy 4Ayy	4c#/yy 4eyy 4gyy 4ayy	.	4ee\	koś-
=52	=52	=52	=52	=52
2.BB\yy 2.Byy	4ryy	.	2gg\	-cia-
.	2d/yy 2f#yy	.	.	.
.	.	.	4ff#\	-mi
=53	=53	=53	=53	=53
2GG/yy 2Gyy	2B/yy 2eyy 2gyy	fzy	8ee\L	któż
.	.	.	8dd\J	.
.	.	.	4cc#\	znów
4GG/yy 4Gyy	4B/yy 4eyy 4gyy	.	4b\	za-
=54	=54	=54	=54	=54
*	*^	*	*	*
2AA\yy 2Ayy	8b/Lyy	2d\yy 2f#yy	>	2a/	-sie-
.	8a/Jyy	.	.	.	.
.	4b/yy	.	.	.	.
4AA\yy 4Ayy	4f#/yy 4ayy	4d\yy	]	4a/	-wa
*	*v	*v	*	*	*
=55	=55	=55	=55	=55
2AA\yy 2Ayy	2c#/yy 2eyy 2gyy 2ayy	<	8cc#/	o-
.	.	.	8b/	-ło-
.	.	.	4g/	-wia-
4AA\yy 4Ayy	4e/yy 4gyy 4ayy 4cc#yy	[[	4e/	-ne
=56	=56	=56	=56	=56
!	!	!LO:DY:b:rj	!	!
2DD/yy 2Dyy	2d/yy 2f#yy 2ayy 2ddyy	sfy	2d/	ziar-
4ryy	4ryy	.	4d/	-ka
!	!	!	!LO:LB:g=original	!
=57	=57	=57	=57	=57
2B\yy 2dyy	4ryy	.	4g/	nie
.	4g\yy 4ggyy	py	4g/	to
4B\yy 4dyy	4ryy	.	4g/	o
=58	=58	=58	=58	=58
2A\yy 2c#yy	4ryy	.	2f#/	pta-
.	4f#\yy 4ff#yy	.	.	.
4A\yy 4c#yy	4ryy	.	4f#/	-szku
=59	=59	=59	=59	=59
2.C#\yy 2.G#Xyy 2.Byy	4ryy	.	8e#X/	a-
.	.	.	8dd\	-le
.	4ee#X\yy 4eee#Xyy	.	4cc#\	tak
.	4ryy	.	4e#/	spra-
=60	=60	=60	=60	=60
2F#\yy 2Ayy	4ryy	.	2f#/	-wio-
.	4ff#\yy 4fff#yy	.	.	.
4F#\yy 4Ayy	4ryy	.	4f#/	-ny
=61	=61	=61	=61	=61
*	*^	*	*	*
2G\yy 2Ayy 2c#yy 2eyy	8.ff#/Lyy	4a\yy 4cc#yy	sfy	8.f#/L	grunt
.	16ee/Jkyy	.	.	16e/Jk	.
.	4ff#/yy	4ryy	.	4f#/	nasz
4G\yy 4Ayy 4c#yy 4eyy	4cc#/yy 4eeyy	4a\yy	.	4e/	swo-
=62	=62	=62	=62	=62	=62
2F#\yy 2dyy 2f#yy	8.aa/Lyy	2a\yy 2ddyy	sfy >	2a/	-bod-
.	16aa/Jkyy	.	.	.	.
.	4dd/yy	.	.	.	.
4B\yy 4dyy 4f#yy	4dd/yy	4b\yy	]	4d/	-nie
=63	=63	=63	=63	=63	=63
4G\yy 4Byy 4eyy	8.gg/Lyy	4b\yy	sfy >	8g/	buj-
.	.	.	.	8g/	-ne
.	16gg/Jkyy	.	.	.	.
4A\yy 4eyy	4cc#/yy	4ryy	.	4c#/	wy-
4A\yy 4eyy	4a/yy 4cc#yy	4g\yy	]	4c#/	-da
*	*v	*v	*	*	*
=64	=64	=64	=64	=64
2D\yy 2dyy	2f#\yy 2ayy 2ddyy	.	2d/	plo-
4D\yy 4dyy	4f#\yy 4ayy 4ddyy	.	4d/	-ny
=65	=65	=65	=65	=65
4AA\yy 4Ayy	4ryy	.	8e/	Pta-
.	.	.	8a/	-zek
4ryy	4c#/yy 4eyy 4gyy 4ayy	py	4b/	raź-
4ryy	4c#/yy 4eyy 4gyy 4ayy	.	4a/	-niej
!	!	!	!LO:LB:g=original	!
=66	=66	=66	=66	=66
4AA\yy 4Ayy	4ryy	.	8f#/	zat-
.	.	.	8a/	-rze-
4ryy	4d/yy 4f#yy 4ayy	.	4b/	-pio-
4ryy	4d/yy 4f#yy 4ayy	.	4a/	-tał
=67	=67	=67	=67	=67
4AA\yy 4Ayy	4ryy	.	8b\	pę-
.	.	.	8cc#\	-dził
4ryy	4c#/yy 4eyy 4gyy 4ayy	.	4dd\	w_go-
4ryy	4c#/yy 4eyy 4gyy 4ayy	.	4ee\	-re
=68	=68	=68	=68	=68
2BB\yy 2Byy	4ryy	.	8gg\	i
.	.	.	8ff#\	szcze-
.	4d/yy 4f#yy	sfy >	4ee\	-bio-
4ryy	4d/yy 4f#yy	]]	4dd\	-tał
=69	=69	=69	=69	=69
2GG\yy 2Gyy	4ryy	.	8ee\	skrzy-
.	.	.	8dd\	-deł-
.	4B/yy 4eyy	.	4cc#\	-ka-
4ryy	4B/yy 4eyy	.	4b\	-mi
=70	=70	=70	=70	=70
2AA\yy 2Ayy	4ryy	.	8cc#\	za-
.	.	.	8b\	-trze-
.	4d/yy 4f#yy	.	4b\	-pio-
4ryy	4A</yy 4dyy 4f#yy	.	4a/	-tał
=71	=71	=71	=71	=71
2AA\yy 2Ayy	4ryy	.	8b/	i
.	.	.	8a/	pę-
.	4e/yy 4gyy 4ayy 4cc#yy	<	4g/	-dził
4AAA/yy 4AAyy	4e/yy 4gyy 4ayy 4cc#yy	[[	4e/	w_go-
=72	=72	=72	=72	=72
2DD/yy 2Dyy	4ryy	.	2d/	-rę
.	4d/yy 4f#yy 4ayy 4ddyy	.	.	.
4ryy	4ryy	.	4r	.
!	!	!	!LO:LB:g=original	!
=73||	=73||	=73||	=73||	=73||
*>B	*>B	*	*>B	*
2D\yy	2d/yy 2f#yy 2ayy	py	4f#/	Po-
.	.	.	4.b/	-le-
4D\yy	4d/yy 4f#yy 4ayy	.	.	.
.	.	.	8a/	-ceż
=74	=74	=74	=74	=74
2AA\yy 2Ayy	2c#/yy 2eyy 2gyy 2ayy	.	2b\	te-
4AA\yy 4Ayy	4c#/yy 4eyy 4gyy 4ayy	.	4cc#\	-ra
=75	=75	=75	=75	=75
2D\yy	2d/yy 2f#yy 2ayy	.	8dd\	przez
.	.	.	8cc#\	pol-
.	.	.	4dd\	-skę
4D\yy	4d/yy 4f#yy 4ayy	.	4ff#\	oj-
=76	=76	=76	=76	=76
2AA\yy 2Ayy	2c#/yy 2eyy 2gyy 2ayy	.	2ee\	-czyz-
4AA\yy 4Ayy	4c#/yy 4eyy 4gyy 4ayy	.	4a/	-nę
=77	=77	=77	=77	=77
*	*^	*	*	*
2D\yy	(8f#/Lyy	2A\yy 2dyy	.	4f#/	aż
.	8a/Jyy	.	.	.	.
.	4b/yy	.	.	4b/	po-
4D\yy	4f#/)yy 4ayy	4d\yy	.	4a/	-za
*	*v	*v	*	*	*
=78	=78	=78	=78	=78
4AA\yy 4Ayy	4ryy	.	2b\	dnie-
4ryy	2c#/yy 2eyy 2gyy 2ayy	.	.	.
4AA\yy 4Ayy	.	.	4cc#\	-per
=79	=79	=79	=79	=79
2BB\yy 2Byy	4ryy	<	4dd\	az
.	2d/yy 2f#yy	[[	4b\	po-
4BB\yy 4Byy	.	.	4dd\	-za
=80	=80	=80	=80	=80
2.FF#\yy 2.F#yy	4ryy	>	2cc#\	dzwi-
.	2A#X</yy 2c#<yy 2f#yy	]	.	.
.	.	.	4f#/	-nę
!	!	!	!LO:LB:g=original	!
=81	=81	=81	=81	=81
*	*^	*	*	*
2AAn\yy 2Anyy	8e/Lyy	2c#\yy 2eyy	<	4e/	i
.	8a/Jyy	.	.	.	.
.	4b/yy	.	.	4.b/	bę-
4AA\yy 4Ayy	4a/yy	4ryy	.	.	.
.	.	.	[	8a/	-de
=82	=82	=82	=82	=82	=82
2D\yy 2Ayy	8f#/Lyy	2d\yy	<	2f#/	pol-
.	8a/Jyy	.	.	.	.
.	4b/yy	.	.	.	.
4D\yy 4Ayy	4a/yy	4ryy	[	4a\	-skę
*	*v	*v	*	*	*
=83	=83	=83	=83	=83
2AA\yy 2Ayy	2c#/yy 2eyy 2gyy 2ayy	.	8b\	na-
.	.	.	8cc#\	-u-
.	.	.	4dd\	-czał
4AA\yy 4Ayy	4c#/yy 4eyy 4gyy 4ayy	.	4ee\	ro-
=84	=84	=84	=84	=84
2.BB\yy 2.Byy	4ryy	.	2gg\	-dzi-
.	2d/yy 2f#yy	.	.	.
.	.	.	4ff#\	-ne
=85	=85	=85	=85	=85
2GG/yy 2Gyy	2B/yy 2eyy 2gyy	fzy	8ee\	tak
.	.	.	8dd\	ro-
.	.	.	4cc#\	-le
4GG/yy 4Gyy	4B/yy 4eyy 4gyy	.	4b\	u-
=86	=86	=86	=86	=86
*	*^	*	*	*
2AA\yy 2Ayy	8b/Lyy	2d\yy 2f#yy	>	2a/	-pra-
.	8a/Jyy	.	.	.	.
.	4b/yy	.	.	.	.
4AA\yy 4Ayy	4f#/yy 4ayy	4d\yy	]	4f#/	-wiać
*	*v	*v	*	*	*
=87	=87	=87	=87	=87
2AA\yy 2Ayy	2c#/yy 2eyy 2gyy 2ayy	<	8b/	by
.	.	.	8a/	plo-
.	.	.	4g/	-ny
4AA\yy 4Ayy	4e/yy 4gyy 4ayy 4cc#yy	[[	4e/	mieć
=88	=88	=88	=88	=88
!	!	!LO:DY:b:rj	!	!
2DD/yy 2Dyy	2d/yy 2f#yy 2ayy 2ddyy	sfy	2d/	zyz-
4ryy	4ryy	.	4d/	-nę
!	!	!	!LO:LB:g=original	!
=89	=89	=89	=89	=89
2B\yy 2dyy	4ryy	.	4g/	Bra-
.	4g\yy 4ggyy	py	4g/	-ci
4B\yy 4dyy	4ryy	.	4g/	sko-
=90	=90	=90	=90	=90
2A\yy 2c#yy	4ryy	.	2f#/	-wrón-
.	4f#\yy 4ff#yy	.	.	.
4A\yy 4c#yy	4ryy	.	4f#/	-kow
=91	=91	=91	=91	=91
2.C#\yy 2.G#Xyy 2.Byy	4ryy	.	8e#X/	toż
.	.	.	8dd\	to
.	4ee#X\yy 4eee#Xyy	.	4cc#\	roz-
.	4ryy	.	4e#/	-we-
=92	=92	=92	=92	=92
2F#\yy 2Ayy	4ryy	.	2f#/	-se-
.	4ff#\yy 4fff#yy	.	.	.
4F#\yy 4Ayy	4ryy	.	4f#/	-li
=93	=93	=93	=93	=93
*	*^	*	*	*
2G\yy 2Ayy 2c#yy 2eyy	8.ff#/Lyy	4a\yy 4cc#yy	sfy	8.f#/L	że
.	16ee/Jkyy	.	.	16e/Jk	.
.	4ff#/yy	4ryy	.	4f#/	w_gę-
4G\yy 4Ayy 4c#yy 4eyy	4cc#/yy 4eeyy	4a\yy	.	4e/	-stych
=94	=94	=94	=94	=94	=94
2F#\yy 2dyy 2f#yy	8.aa/Lyy	2a\yy 2ddyy	sfy >	2a/	zbo-
.	16aa/Jkyy	.	.	.	.
.	4dd/yy	.	.	.	.
4B\yy 4dyy 4f#yy	4dd/yy	4b\yy	]	4d/	-zach
=95	=95	=95	=95	=95	=95
4G\yy 4Byy 4eyy	8.gg/Lyy	4b\yy	sfy >	8g/	bę-
.	.	.	.	8g/	-dą
.	16gg/Jkyy	.	.	.	.
4A\yy 4eyy	4cc#/yy	4ryy	.	4c#/	miesz-
4A\yy 4eyy	4a/yy 4cc#yy	4g\yy	]	4c#/	-kać
*	*v	*v	*	*	*
=96	=96	=96	=96	=96
2D\yy 2dyy	2f#\yy 2ayy 2ddyy	.	2d/	smie-
4D\yy 4dyy	4f#\yy 4ayy 4ddyy	.	4d/	-léj
=97	=97	=97	=97	=97
4AA\yy 4Ayy	4ryy	.	8e/	i
.	.	.	8a/	zabr-
4ryy	4c#/yy 4eyy 4gyy 4ayy	py	4b/	-nął
4ryy	4c#/yy 4eyy 4gyy 4ayy	.	4a/	gdzieś
!	!	!	!LO:LB:g=original	!
=98	=98	=98	=98	=98
4AA\yy 4Ayy	4ryy	.	8f#/	w_Nie-
.	.	.	8a/	-ba
4ryy	4d/yy 4f#yy 4ayy	.	4b/	si-
4ryy	4d/yy 4f#yy 4ayy	.	4a/	-ne
=99	=99	=99	=99	=99
4AA\yy 4Ayy	4ryy	.	8b\	bo-
.	.	.	8cc#\	-że
4ryy	4c#/yy 4eyy 4gyy 4ayy	.	4dd\	bło-
4ryy	4c#/yy 4eyyy 4gyy 4ayy	.	4ee\	-go-
=100	=100	=100	=100	=100
2BB\yy 2Byy	4ryy	.	8gg\	-sław
.	.	.	8ff#\	pta-
.	4d/yy 4f#yy	sfy >	4ee\	-szy-
4ryy	4d/yy 4f#yy	]]	4dd\	-nę
=101	=101	=101	=101	=101
2GG\yy 2Gyy	4ryy	.	8ee\	bo-
.	.	.	8dd\	-ze
.	4B/yy 4eyy	.	4cc#\	bło-
4ryy	4B/yy 4eyy	.	4b\	-go-
=102	=102	=102	=102	=102
2AA\yy 2Ayy	4ryy	.	8cc#\	-sław
.	.	.	8b\	pta-
.	4d/yy 4f#yy	.	4b\	-szy-
4ryy	4A</yy 4dyy 4f#yy	.	4a/	-nę
=103	=103	=103	=103	=103
2AA\yy 2Ayy	4ryy	.	8b/	bo-
.	.	.	8a/	-że
.	4e/yy 4gyy 4ayy 4cc#yy	<	4g/	bło-
4AAA/yy 4AAyy	4e/yy 4gyy 4ayy 4cc#yy	[[	4e/	-go-
=104	=104	=104	=104	=104
2DD/yy 2Dyy	4ryy	.	2d/	-sław
.	4d/yy 4f#yy 4ayy 4ddyy	.	.	.
4ryy	4ryy	.	4r	.
==	==	==	==	==
*-	*-	*-	*-	*-
!!!system-decoration: s1{(s2,s3)}
!!!RDF**kern: < = below
!!!RDF**kern: > = above
!!!ENC: Filip Voros
!!!END: 2022-02-10
!!!AIN: 1 piano
!!!ENC: Marta Chmielewska
!!!END: 2022-02-16
